images/SVG/theme-icon.svg

<?xml version="1.0" encoding="UTF-8"?>
<svg width="24px" height="24px" viewBox="0 0 24 24" version="1.1" xmlns="http://www.w3.org/2000/svg" xmlns:xlink="http://www.w3.org/1999/xlink">
    <title>Theme Icon</title>
    <g stroke="none" stroke-width="1" fill="none" fill-rule="evenodd">
        <path d="M12,18 C8.691,18 6,15.309 6,12 C6,8.691 8.691,6 12,6 C15.309,6 18,8.691 18,12 C18,15.309 15.309,18 12,18 Z M22,12.5 L22,11.5 L18.975,11.5 C18.864,9.944 18.249,8.531 17.286,7.421 L19.425,5.282 L18.718,4.575 L16.58,6.714 C15.47,5.751 14.057,5.136 12.5,5.025 L12.5,2 L11.5,2 L11.5,5.025 C9.944,5.136 8.53,5.751 7.421,6.714 L5.282,4.575 L4.575,5.282 L6.714,7.421 C5.751,8.53 5.136,9.944 5.025,11.5 L2,11.5 L2,12.5 L5.025,12.5 C5.136,14.057 5.751,15.47 6.714,16.58 L4.575,18.718 L5.282,19.425 L7.421,17.286 C8.531,18.249 9.944,18.864 11.5,18.975 L11.5,22 L12.5,22 L12.5,18.975 C14.056,18.864 15.47,18.249 16.579,17.286 L18.718,19.425 L19.425,18.718 L17.286,16.579 C18.249,15.47 18.864,14.056 18.975,12.5 L22,12.5 Z" id="fill" fill="#000000"></path>
    </g>
</svg>

<svg id="Layer_1" data-name="Layer 1" xmlns="http://www.w3.org/2000/svg" viewBox="0 0 24 24"><title>theme-icon</title><path d="M22,12.5v-1H19a7,7,0,0,0-1.68-4.08l2.13-2.14-.7-.7L16.58,6.71A7,7,0,0,0,12.5,5V2h-1V5A7,7,0,0,0,7.42,6.71L5.28,4.58l-.7.7L6.71,7.42A7,7,0,0,0,5,11.5H2v1H5a7,7,0,0,0,1.68,4.08L4.58,18.72l.7.7,2.14-2.13A7,7,0,0,0,11.5,19v3h1V19a7,7,0,0,0,4.08-1.68l2.14,2.13.7-.7-2.13-2.14A7,7,0,0,0,19,12.5ZM12,18a6,6,0,1,1,6-6A6,6,0,0,1,12,18Z"/></svg>
